PortableApps/LibreOfficePortable/App/libreoffice/help/media/icon-themes/sw/res/wr06.svg

<svg viewBox="0 0 32 32" xmlns="http://www.w3.org/2000/svg"><path d="m3.5 4c-.277 0-.5.223-.5.5s.223.5.5.5h25c.277 0 .5-.223.5-.5s-.223-.5-.5-.5zm0 4c-.277 0-.5.223-.5.5s.223.5.5.5h4c.277 0 .5-.223.5-.5s-.223-.5-.5-.5zm21 0c-.277 0-.5.223-.5.5s.223.5.5.5h4c.277 0 .5-.223.5-.5s-.223-.5-.5-.5zm-21 4c-.277 0-.5.223-.5.5s.223.5.5.5h4c.277 0 .5-.223.5-.5s-.223-.5-.5-.5zm21 0c-.277 0-.5.223-.5.5s.223.5.5.5h4c.277 0 .5-.223.5-.5s-.223-.5-.5-.5zm-21 4c-.277 0-.5.223-.5.5s.223.5.5.5h4c.277 0 .5-.223.5-.5s-.223-.5-.5-.5zm21 0c-.277 0-.5.223-.5.5s.223.5.5.5h4c.277 0 .5-.223.5-.5s-.223-.5-.5-.5zm-21 4c-.277 0-.5.223-.5.5s.223.5.5.5h4c.277 0 .5-.223.5-.5s-.223-.5-.5-.5zm21 0c-.277 0-.5.223-.5.5s.223.5.5.5h4c.277 0 .5-.223.5-.5s-.223-.5-.5-.5zm-21 4c-.277 0-.5.223-.5.5s.223.5.5.5h4c.277 0 .5-.223.5-.5s-.223-.5-.5-.5zm21 0c-.277 0-.5.223-.5.5s.223.5.5.5h4c.277 0 .5-.223.5-.5s-.223-.5-.5-.5zm-21 4c-.277 0-.5.223-.5.5s.223.5.5.5h25c.277 0 .5-.223.5-.5s-.223-.5-.5-.5z" fill="#808080"/><path d="m10.966797 8c-.53588 0-.966797.430917-.966797.966797v15.066406c0 .53588.430917.966797.966797.966797h10.066406c.53588 0 .966797-.430917.966797-.966797v-15.066406c0-.53588-.430917-.966797-.966797-.966797zm.0332 1h10v15h-10z" fill="#eac282"/><path d="m11 9v15h10v-15z" fill="#4d82b8" opacity=".5"/></svg>

<svg viewBox="0 0 32 32" xmlns="http://www.w3.org/2000/svg">
  <path
     style="fill:#808080"
     d="M 3.5 4 C 3.223 4 3 4.223 3 4.5 C 3 4.777 3.223 5 3.5 5 L 28.5 5 C 28.777 5 29 4.777 29 4.5 C 29 4.223 28.777 4 28.5 4 L 3.5 4 z M 3.5 8 C 3.223 8 3 8.223 3 8.5 C 3 8.777 3.223 9 3.5 9 L 7.5 9 C 7.777 9 8 8.777 8 8.5 C 8 8.223 7.777 8 7.5 8 L 3.5 8 z M 24.5 8 C 24.223 8 24 8.223 24 8.5 C 24 8.777 24.223 9 24.5 9 L 28.5 9 C 28.777 9 29 8.777 29 8.5 C 29 8.223 28.777 8 28.5 8 L 24.5 8 z M 3.5 12 C 3.223 12 3 12.223 3 12.5 C 3 12.777 3.223 13 3.5 13 L 7.5 13 C 7.777 13 8 12.777 8 12.5 C 8 12.223 7.777 12 7.5 12 L 3.5 12 z M 24.5 12 C 24.223 12 24 12.223 24 12.5 C 24 12.777 24.223 13 24.5 13 L 28.5 13 C 28.777 13 29 12.777 29 12.5 C 29 12.223 28.777 12 28.5 12 L 24.5 12 z M 3.5 16 C 3.223 16 3 16.223 3 16.5 C 3 16.777 3.223 17 3.5 17 L 7.5 17 C 7.777 17 8 16.777 8 16.5 C 8 16.223 7.777 16 7.5 16 L 3.5 16 z M 24.5 16 C 24.223 16 24 16.223 24 16.5 C 24 16.777 24.223 17 24.5 17 L 28.5 17 C 28.777 17 29 16.777 29 16.5 C 29 16.223 28.777 16 28.5 16 L 24.5 16 z M 3.5 20 C 3.223 20 3 20.223 3 20.5 C 3 20.777 3.223 21 3.5 21 L 7.5 21 C 7.777 21 8 20.777 8 20.5 C 8 20.223 7.777 20 7.5 20 L 3.5 20 z M 24.5 20 C 24.223 20 24 20.223 24 20.5 C 24 20.777 24.223 21 24.5 21 L 28.5 21 C 28.777 21 29 20.777 29 20.5 C 29 20.223 28.777 20 28.5 20 L 24.5 20 z M 3.5 24 C 3.223 24 3 24.223 3 24.5 C 3 24.777 3.223 25 3.5 25 L 7.5 25 C 7.777 25 8 24.777 8 24.5 C 8 24.223 7.777 24 7.5 24 L 3.5 24 z M 24.5 24 C 24.223 24 24 24.223 24 24.5 C 24 24.777 24.223 25 24.5 25 L 28.5 25 C 28.777 25 29 24.777 29 24.5 C 29 24.223 28.777 24 28.5 24 L 24.5 24 z M 3.5 28 C 3.223 28 3 28.223 3 28.5 C 3 28.777 3.223 29 3.5 29 L 28.5 29 C 28.777 29 29 28.777 29 28.5 C 29 28.223 28.777 28 28.5 28 L 3.5 28 z "
     />
  <path
     style="fill:#eac282"
     d="M 10.966797,8 C 10.430917,8 10,8.430917 10,8.966797 V 24.033203 C 10,24.569083 10.430917,25 10.966797,25 H 21.033203 C 21.569083,25 22,24.569083 22,24.033203 V 8.966797 C 22,8.430917 21.569083,8 21.033203,8 Z m 0.0332,1 h 10 v 15 h -10 z"
     />
  <path
     style="opacity:0.5;fill:#4d82b8"
     d="M 11,9 V 24 H 21 V 9 Z"
     />
</svg>
